rospo-newyear-dark/symbolic/status/network-wireless-acquiring-symbolic.svg

<svg height="16" width="16" xmlns="http://www.w3.org/2000/svg"><g fill="#d3dae3"><path d="m5 8a2 2 0 0 1 -2 2 2 2 0 0 1 -2-2 2 2 0 0 1 2-2 2 2 0 0 1 2 2z"/><path d="m10 8a2 2 0 0 1 -2 2 2 2 0 0 1 -2-2 2 2 0 0 1 2-2 2 2 0 0 1 2 2z"/><path d="m15 8a2 2 0 0 1 -2 2 2 2 0 0 1 -2-2 2 2 0 0 1 2-2 2 2 0 0 1 2 2z"/><path d="m8 2c-3.0506 0-5.9194 1.0732-8 3h16c-2.081-1.9269-4.949-3-8-3zm-2.666 9 2.666 3 2.666-3z" opacity=".3"/></g></svg>

<svg xmlns="http://www.w3.org/2000/svg" width="16" height="16" version="1.1">
 <path style="fill:#d3dae3" d="M 5,8 A 2,2 0 0 1 3,10 2,2 0 0 1 1,8 2,2 0 0 1 3,6 2,2 0 0 1 5,8 Z"/>
 <path style="fill:#d3dae3" d="M 10,8 A 2,2 0 0 1 8,10 2,2 0 0 1 6,8 2,2 0 0 1 8,6 2,2 0 0 1 10,8 Z"/>
 <path style="fill:#d3dae3" d="M 15,8 A 2,2 0 0 1 13,10 2,2 0 0 1 11,8 2,2 0 0 1 13,6 2,2 0 0 1 15,8 Z"/>
 <path style="opacity:0.3;fill:#d3dae3" d="M 8 2 C 4.9494 2 2.0806 3.0732 0 5 L 16 5 C 13.919 3.0731 11.051 2 8 2 z M 5.334 11 L 8 14 L 10.666 11 L 5.334 11 z"/>
</svg>
